X: 4328
T: Maclod's Rant
N: Pub: J. Walsh, London, 1748
Z: 2012 John Chambers <jc:trillian.mit.edu>
N: The 2nd part has a begin-repeat but no end-repeat.
M: 2/4
L: 1/8
K: G
%
V: 1
|: B2 AG | G/G/G GA | B2 AG | A/A/A Ad | B2 AG | G/G/G GB | E/E/E EF | G/G/G G2 :|
|: d>edg | d2Bc | d/d/d dg | d2Bc | d/d/d gd | c/c/c gc | B/B/B gB | A/A/A A2 |
   G>A Bd | E2 DB, | G/G/G Bd | E2 DB, | CDEF | Ge d2 | B2 AG | G/G/G G2 |]
%
V: 2 clef=bass middle=d
|: G4   | e4   | g2G2 | d4   | G4    | e4    | c2d2 | G4 :|
|: g2g2 | g2G2 | g2g2 | g2G2 | b4    | a4    | g2G2 | d4 |
   z4   | zcBG | e2g2 | zcBG | c2c'2 | zc'bf | g2f2 | G4 |]
%%begintext align
The 1st Cu. foot it and turn the 2d Cu. to the Top, then foot it and turn the 2d Cu, into their Places |
Dance inside below the 3d Cu. cast up into the 2d Cu.s Place, take hands sideways, foot it and turn |
%%endtext

%%sep 1 1 500
%%sep 1 1 500

